!!!!SEGMENT: pl-kk--kk-i-2--042-004_lilius-franciszek--missa-pro-tempore-pashali-sanctus.krn
!!!cenid: 16xx:1665
!!!COM: Lilius, Franciszek
!!!COM-rismID: pe30020509
!!!CDT: ~1600-1657
!!!CNT: Polish
!!!OPR: Missa pro tempore Pashali
!!!OTL: Sanctus
!!!OMV: 004
!!!PDT:
!!!AGN: Sacred; Mass
!!!SMS-siglum: PL-Kk
!!!SMS-shelfmark: Kk.I.2
!!!SMS-shelfwork: 042-004 M
!!!NIFC-rismSourceID: 300258060
!!!NIFC-islandoraID: pl-kk:750
!!!URL-pdf-islandora: https://repozytorium.nifc.pl/islandora/object/pl-kk%3A750/datastream/PDF/view
!!!URL-scan: https://polish.musicsources.pl/pl/lokalizacje/galeria/rekopisy/5828 @EN{Scan on Polish Music Sources Website} @PL{Skany w portalu Dziedzictwo Muzyki Polskiej w otwartym dostępie}
!!!ONB-nifc: Części mszy: Kyrie, Gloria, Credo, Sanctus, Agnus Dei; skany: C: 0067-0068; A: 0171-0172; T: 0271-0272; B: 0371;
!!!AIN: 3 empty 1 tenor
!!!key:
**kern	**text	**kern	**text	**kern	**text	**kern	**text
*part4	*part4	*part3	*part3	*part2	*part2	*part1	*part1
*staff4	*staff4	*staff3	*staff3	*staff2	*staff2	*staff1	*staff1
*Iempty	*	*Itenor	*	*Iempty	*	*Iempty	*
*I"BASVS	*	*I"TENOR	*	*I"ALTVS	*	*I"DISCANTVS	*
*I'B	*	*I'T	*	*I'A	*	*I'S	*
*ICvox	*	*ICvox	*	*ICvox	*	*ICvox	*
*clefF4	*	*clefC4	*	*clefC4	*	*clefC3	*
*k[]	*	*k[]	*	*k[]	*	*k[]	*
*C:	*	*C:	*	*C:	*	*C:	*
*M2/1	*	*M2/1	*	*M2/1	*	*M2/1	*
*met(C|)	*	*met(C|)	*	*met(C|)	*	*met(C|)	*
*	*	*	*	*	*	*lig	*
=1-	=1-	=1-	=1-	=1-	=1-	=1-	=1-
*xywh-pl-kk--i-2--0371:1859,623,5878,1052	*xywh-pl-kk--i-2--0371:1859,623,5878,1052	*xywh-pl-kk--i-2--0271:7891,1497,6117,1021	*xywh-pl-kk--i-2--0271:7891,1497,6117,1021	*xywh-pl-kk--i-2--0171:2054,2908,5717,990	*xywh-pl-kk--i-2--0171:2054,2908,5717,990	*xywh-pl-kk--i-2--0067:8087,2285,5866,906	*xywh-pl-kk--i-2--0067:8087,2285,5866,906
2r	.	1E	San-	1G	San-	1B	San-
!LO:TX:t=P:problem=kreska pseudotaktowa	!	!	!	!	!	!	!
2E\	San-	.	.	.	.	.	.
*lig	*	*lig	*	*	*	*	*
1D	.	1F	.	1A	.	1d	.
*	*	*	*	*	*	*Xlig	*
=2-	=2-	=2-	=2-	=2-	=2-	=2-	=2-
1C	.	1E	.	1.c	.	2.e\	.
!	!	!	!	!	!	!LO:TX:t=P:problem=kreska pseudotaktowa	!
.	.	.	.	.	.	4f\	.
*Xlig	*	*Xlig	*	*	*	*	*
*	*	*lig	*	*	*	*	*
1GG	.	1D	.	.	.	1g	.
!	!	!	!	!LO:TX:t=P:problem=kreska pseudotaktowa	!	!	!
.	.	.	.	2B\	.	.	.
=3-	=3-	=3-	=3-	=3-	=3-	=3-	=3-
1C	.	1E	.	1c	.	1g	-ct(us)
*	*	*Xlig	*	*	*	*	*
!LO:TX:t=P:problem=kreska pseudotaktowa	!	!	!	!	!	!	!
*	*	*lig	*	*	*	*	*
1GG	.	1G	.	1B	.	2r	.
!	!	!	!	!	!	!LO:TX:t=P:problem=kreska pseudotaktowa	!
.	.	.	.	.	.	2d\	San-
=4-	=4-	=4-	=4-	=4-	=4-	=4-	=4-
2.C/	.	1E	.	2c\	.	2e\	.
.	.	.	.	2.e\	.	1g	.
4BB/	.	.	.	.	.	.	.
!	!	!	!	!LO:TX:t=P::problem=kreska pseudotaktowa&colon;między nutą a kropką	!	!	!
*	*	*Xlig	*	*	*	*	*
*	*	*lig	*	*	*	*	*
1AA	.	1C	.	.	.	.	.
.	.	.	.	4d\	.	.	.
.	.	.	.	1c\	.	2f#X\	.
=5-	=5-	=5-	=5-	=5-	=5-	=5-	=5-
!LO:TX:t=P:problem=kreska pseudotaktowa	!	!	!	!	!	!	!
1GG	.	1D	.	.	.	1g	.
!	!	!	!	!LO:TX:t=P:problem=kreska pseudotaktowa	!	!	!
.	.	.	.	2B\	.	.	.
*	*	*Xlig	*	*	*	*	*
*	*	*lig	*	*	*	*	*
!	!	!	!	!	!	!LO:TX:t=P:problem=kreska pseudotaktowa	!
2.C/	.	1E	.	1.c	.	1g	-ct(us)
4BB/	.	.	.	.	.	.	.
=6-	=6-	=6-	=6-	=6-	=6-	=6-	=6-
4AA/	.	1F	.	.	.	2.c/	San-
4GG/	.	.	.	.	.	.	.
!	!	!	!	!LO:TX:t=P:problem=kreska pseudotaktowa	!	!	!
2FF/	.	.	.	2A/	.	.	.
.	.	.	.	.	.	4d\	.
*	*	*Xlig	*	*	*	*	*
1C	.	1E	.	0.G	.	2e\	.
.	.	.	.	.	.	1c\	.
=7-	=7-	=7-	=7-	=7-	=7-	=7-	=7-
0GG	.	0D	.	.	.	.	.
.	.	.	.	.	.	4B/	.
.	.	.	.	.	.	4A/	.
.	.	.	.	.	.	1B	.
=8-	=8-	=8-	=8-	=8-	=8-	=8-	=8-
0C;	-ct(us)	0E;	-ct(us).	0G;	-ct(us)	0c;	-ct(us)
=9||-	=9||-	=9||-	=9||-	=9||-	=9||-	=9||-	=9||-
*M2/1	*	*M2/1	*	*M2/1	*	*M2/1	*
*met(C|)	*	*	*	*	*	*	*
!LO:TX:t=P:problem=kreska pseudotaktowa	!	!	!	!	!	!	!
*	*	*lig	*	*	*	*	*
*	*	*met(C|)	*	*met(C|)	*	*met(C|)	*
0r	.	1Bnny	San-	0r	.	0r	.
.	.	1c	.	.	.	.	.
*	*	*Xlig	*	*	*	*	*
=10-	=10-	=10-	=10-	=10-	=10-	=10-	=10-
*lig	*	*	*	*	*	*	*
1E	San-	1B	.	0r	.	0r	.
1F	.	1A	.	.	.	.	.
*Xlig	*	*	*	*	*	*	*
=11-	=11-	=11-	=11-	=11-	=11-	=11-	=11-
!	!	!	!	!LO:TX:t=P:problem=kreska pseudotaktowa	!	!	!
1.E	.	1B	.	1r	.	0r	.
.	.	1G	.	1B	San-	.	.
2D/	.	.	.	.	.	.	.
=12-	=12-	=12-	=12-	=12-	=12-	=12-	=12-
!LO:TX:t=P:problem=kreska pseudotaktowa	!	!	!	!	!	!LO:TX:t=P:problem=kreska pseudotaktowa	!
1C	.	1E	.	1.c	.	0r	.
*	*	*lig	*	*	*	*	*
1D	.	1F	.	.	.	.	.
!	!	!	!	!LO:TX:t=P:problem=kreska pseudotaktowa	!	!	!
.	.	.	.	2B\	.	.	.
=13-	=13-	=13-	=13-	=13-	=13-	=13-	=13-
*	*	*	*	*	*	*lig	*
1C	.	1E	.	2A/	.	1e	San-
.	.	.	.	2G/	.	.	.
*	*	*Xlig	*	*	*	*	*
!	!	!	!	!LO:TX:t=P:problem=kreska pseudotaktowa	!	!	!
1D	.	1D	.	1F	.	1fny	.
*	*	*	*	*	*	*Xlig	*
=14-	=14-	=14-	=14-	=14-	=14-	=14-	=14-
*lig	*	*lig	*	*	*	*	*
1C	.	1E	.	0G	.	2e\	.
.	.	.	.	.	.	1c	.
1GG	.	1D	.	.	.	.	.
.	.	.	.	.	.	2B/	.
*Xlig	*	*Xlig	*	*	*	*	*
=15-	=15-	=15-	=15-	=15-	=15-	=15-	=15-
0C;	-ctus.	0E;	-ct(us).	0G;	-ct(us)	0c;	-ct(us)
*xywh-pl-kk--i-2--0371:1812,1508,6046,959	*xywh-pl-kk--i-2--0371:1812,1508,6046,959	*xywh-pl-kk--i-2--0271:7972,2274,5828,1002	*xywh-pl-kk--i-2--0271:7972,2274,5828,1002	*xywh-pl-kk--i-2--0171:2037,3727,5989,999	*xywh-pl-kk--i-2--0171:2037,3727,5989,999	*xywh-pl-kk--i-2--0067:8157,2928,5902,970	*xywh-pl-kk--i-2--0067:8157,2928,5902,970
!LO:LB:g=original	!	!LO:LB:g=original	!	!LO:LB:g=original	!	!LO:LB:g=original	!
=16||-	=16||-	=16||-	=16||-	=16||-	=16||-	=16||-	=16||-
*met(C|)	*	*met(C|)	*	*met(C|)	*	*met(C|)	*
*lig	*	*	*	*lig	*	*	*
1E	San-	1E	San-	1G	San-	1B	San-
*	*	*lig	*	*	*	*	*
!	!	!	!	!LO:TX:t=P:problem=kreska pseudotaktowa	!	!LO:TX:t=P:problem=kreska pseudotaktowa	!
1D	.	1F	.	1A	.	1d	.
*Xlig	*	*	*	*Xlig	*	*	*
=17-	=17-	=17-	=17-	=17-	=17-	=17-	=17-
1C	.	1E	.	1.c	.	2.e\	.
.	.	.	.	.	.	4f\	.
*	*	*Xlig	*	*	*	*	*
!LO:TX:t=P:problem=kreska pseudotaktowa	!	!	!	!	!	!	!
*	*	*lig	*	*	*	*	*
1GG	.	1D	.	.	.	1g	.
!	!	!	!	!LO:TX:t=P:problem=kreska pseudotaktowa	!	!	!
.	.	.	.	2B\	.	.	.
=18-	=18-	=18-	=18-	=18-	=18-	=18-	=18-
!	!	!	!	!	!	!LO:TX:t=P:problem=kreska pseudotaktowa	!
1C	.	1E	.	1c	.	1g	-ct(us)
*	*	*Xlig	*	*	*	*	*
*	*	*lig	*	*	*	*	*
1BB	.	1G	.	1d	.	2r	.
*	*	*	*	*	*	*	*ij
.	.	.	.	.	.	2d\	San-
=19-	=19-	=19-	=19-	=19-	=19-	=19-	=19-
2.C/	.	1E	.	2c\	.	2e\	.
!	!	!	!	!LO:TX:t=P:problem=kreska pseudotaktowa	!	!	!
.	.	.	.	2G/	.	1g	.
4BB/	.	.	.	.	.	.	.
*	*	*Xlig	*	*	*	*	*
*	*	*lig	*	*	*	*	*
1AA	.	1C	.	4A/	.	.	.
.	.	.	.	4B\	.	.	.
!	!	!	!	!	!	!LO:TX:t=P:problem=kreska pseudotaktowa	!
.	.	.	.	1c\	.	2f\	.
=20-	=20-	=20-	=20-	=20-	=20-	=20-	=20-
!LO:TX:t=P:problem=kreska pseudotaktowa	!	!	!	!	!	!	!
1GG	.	1D	.	.	.	1g	.
!	!	!	!	!LO:TX:t=P:problem=kreska pseudotaktowa	!	!	!
.	.	.	.	2B\	.	.	.
*	*	*Xlig	*	*	*	*	*
*	*	*lig	*	*	*	*	*
2.C/	.	1E	.	1.c	.	1g	-ct(us)
*	*	*	*	*	*	*	*Xij
4BB/	.	.	.	.	.	.	.
=21-	=21-	=21-	=21-	=21-	=21-	=21-	=21-
*	*	*	*	*	*	*	*ij
4AA/	.	1F	.	.	.	2.c/	San-
4GG/	.	.	.	.	.	.	.
!	!	!	!	!LO:TX:t=P:problem=kreska pseudotaktowa	!	!	!
2FF/	.	.	.	2A/	.	.	.
.	.	.	.	.	.	4d/	.
*	*	*Xlig	*	*	*	*	*
*	*	*lig	*	*	*	*	*
1C	.	1E	.	0G	.	2e\	.
.	.	.	.	.	.	1c\	.
=22-	=22-	=22-	=22-	=22-	=22-	=22-	=22-
!LO:TX:t=P:problem=kreska pseudotaktowa	!	!	!	!	!	!	!
1GG	.	1D	.	.	.	.	.
.	.	.	.	.	.	2B/	.
*	*	*Xlig	*	*	*	*	*
!	!	!LO:TX:t=P:problem=kreska pseudotaktowa	!	!LO:TX:t=P:problem=kreska pseudotaktowa	!	!LO:TX:t=P:problem=kreska pseudotaktowa	!
2C,/	-ct(us)	1E	-ct(us)	1G	-ct(us)	1c	-ct(us)
*	*	*	*	*	*	*	*Xij
2.C/	Do-	.	.	.	.	.	.
=23-	=23-	=23-	=23-	=23-	=23-	=23-	=23-
.	.	1G	Do-	0r	.	2r	.
4D/	.	.	.	.	.	.	.
!LO:TX:t=P:problem=kreska pseudotaktowa	!	!	!	!	!	!	!
2E\	-mi-	.	.	.	.	2.c/	Do-
1F	-nus	1A	-mi-	.	.	.	.
.	.	.	.	.	.	4c/	-mi-
!	!	!	!	!	!	!LO:TX:t=P:problem=kreska pseudotaktowa	!
.	.	.	.	.	.	2d\	-nus
=24-	=24-	=24-	=24-	=24-	=24-	=24-	=24-
1E	De-	1B	-n(us)	1G	Do-	1.e	De-
*	*	*lig	*	*	*	*	*
2AA,/	-us	1c	De-	1A	-mi-	.	.
!	!	!	!	!	!	!LO:TX:t=P:problem=kreska pseudotaktowa	!
1A\	Sab-	.	.	.	.	2c/	-(us)
=25-	=25-	=25-	=25-	=25-	=25-	=25-	=25-
!	!	!	!	!LO:TX:t=P:problem=kreska pseudotaktowa	!	!	!
.	.	1B	.	1B	-n(us)	2.e\	Sab-
!LO:TX:t=P:problem=kreska pseudotaktowa	!	!	!	!	!	!	!
2G#X\	.	.	.	.	.	.	.
.	.	.	.	.	.	4d\	.
*	*	*Xlig	*	*	*	*	*
*	*	*lig	*	*	*	*	*
1A	.	1A	.	2.c\	De-	4c/	.
.	.	.	.	.	.	4B/	.
.	.	.	.	.	.	1A/	.
.	.	.	.	4d\	-us	.	.
=26-	=26-	=26-	=26-	=26-	=26-	=26-	=26-
2.E\	.	1B	.	2e\	Sab-	.	.
!	!	!	!	!	!	!LO:TX:b:t=P:problem=# below	!
!	!	!	!	!	!	!LO:TX:t=P:problem=kreska pseudotaktowa	!
.	.	.	.	2e\	-ba-	2G#X/	-ba-
4E\	-ba-	.	.	.	.	.	.
*	*	*Xlig	*	*	*	*	*
!	!	!	!	!LO:TX:t=P:problem=kreska pseudotaktowa	!	!	!
2AA/	-oth	1A	.	1c	-oth	2A/	-oth
*	*	*	*	*	*	*	*ij
2.C/	Do-	.	.	.	.	2.e\	Do-
=27-	=27-	=27-	=27-	=27-	=27-	=27-	=27-
!	!	!LO:TX:t=P:problem=kreska pseudotaktowa	!	!	!	!	!
.	.	1G	-us	2r	.	.	.
4D/	-mi-	.	.	.	.	4f\	-mi-
*	*	*	*	*	*	*custos:f	*
!	!	!	!	!	!	!LO:TX:t=P:problem=kreska pseudotaktowa	!
*	*	*	*	*	*	*xywh-pl-kk--i-2--0067:8132,3727,6083,1088	*xywh-pl-kk--i-2--0067:8132,3727,6083,1088
!	!	!	!	!	!	!LO:LB:g=original	!
*	*	*	*	*	*ij	*	*
2E\	-n(us)	.	.	2.c\	Do-	2g\	-nus
1F	De-	1A	Sab-	.	.	1f	De-
.	.	.	.	4c\	-mi-	.	.
!	!	!	!	!LO:TX:t=P:problem=kreska pseudotaktowa	!	!	!
.	.	.	.	2d\	-n(us)	.	.
=28-	=28-	=28-	=28-	=28-	=28-	=28-	=28-
1C	-(us)	1G	.	2e\	De-	2g\	-(us)
.	.	.	.	1c	-us	1e	Sab-
*	*ij	*	*	*	*	*	*
1F	De-	1A	-ba-	.	.	.	.
.	.	.	.	1A\	Sab-	2d\	-ba-
=29-	=29-	=29-	=29-	=29-	=29-	=29-	=29-
0E;	-(us)	0B;	-oth.	.	.	0e;	-oth
*	*Xij	*	*	*	*	*	*
*	*	*xywh-pl-kk--i-2--0271:7873,3078,5909,957	*xywh-pl-kk--i-2--0271:7873,3078,5909,957	*	*	*	*
!LO:LB:g=original	!	!LO:LB:g=original	!	!	!	!	!
*	*	*	*	*	*	*	*Xij
.	.	.	.	2G#X/	-ba-	.	.
.	.	.	.	1G#X;	-oth	.	.
*	*	*	*	*	*Xij	*	*
*xywh-pl-kk--i-2--0371:1887,2216,5897,1034	*xywh-pl-kk--i-2--0371:1887,2216,5897,1034	*	*	*xywh-pl-kk--i-2--0171:7926,664,6335,927	*xywh-pl-kk--i-2--0171:7926,664,6335,927	*	*
!	!	!	!	!LO:LB:g=original	!	!	!
=30||-	=30||-	=30||-	=30||-	=30||-	=30||-	=30||-	=30||-
*M2/1	*	*M2/1	*	*M2/1	*	*M2/1	*
*met(C|)	*	*met(C|)	*	*met(C|)	*	*met(C|)	*
0r	.	1e	Ple-	0r	.	0r	.
.	.	1d	-ni	.	.	.	.
=31-	=31-	=31-	=31-	=31-	=31-	=31-	=31-
!LO:TX:t=P:problem=kreska pseudotaktowa	!	!LO:TX:t=P:problem=kreska pseudotaktowa	!	!	!	!	!
1r	.	1B	ſunt	0r	.	0r	.
*	*	*lig	*	*	*	*	*
1A	Ple-	1c	cae-	.	.	.	.
=32-	=32-	=32-	=32-	=32-	=32-	=32-	=32-
!	!	!	!	!	!	!LO:TX:t=P:problem=kreska pseudotaktowa	!
2G\	-ni	1B	.	2r	.	1r	.
!	!	!	!	!LO:TX:t=P:problem=kreska pseudotaktowa	!	!	!
2E\	ſunt	.	.	2e\	Ple-	.	.
*	*	*Xlig	*	*	*	*	*
1F	cae-	1A	.	2c\	-ni	1a	Ple-
!	!	!	!	!LO:TX:t=P:problem=kreska pseudotaktowa	!	!	!
.	.	.	.	2A/	ſunt	.	.
=33-	=33-	=33-	=33-	=33-	=33-	=33-	=33-
2E\	-li	1B	.	1e	cae-	2g\	-ni
!LO:TX:t=P:problem=kreska pseudotaktowa	!	!	!	!	!	!LO:TX:t=P:problem=kreska pseudotaktowa	!
2G\	et	.	.	.	.	2e\	ſunt
*	*	*lig	*	*	*	*	*
1D	ter-	1A	-li	2.d\	-li	1f	cae-
!	!	!	!	!LO:TX:t=P:problem=kreska pseudotaktowa	!	!	!
.	.	.	.	4c\	et	.	.
=34-	=34-	=34-	=34-	=34-	=34-	=34-	=34-
2E\	-ra	1G	.	2B\	ter-	2e\	-li
!	!	!	!	!LO:TX:t=P:problem=kreska pseudotaktowa	!	!	!
2E\	Ple-	.	.	2B\	-ra	2.e\	et
*	*	*Xlig	*	*	*	*	*
2C/	-ni	1E	et	2r	.	.	.
.	.	.	.	.	.	4d\	.
!LO:TX:t=P:problem=kreska pseudotaktowa	!	!	!	!	!	!	!
*	*	*	*	*	*ij	*	*
2AA/	ſunt	.	.	2e\	Ple-	2c/	.
=35-	=35-	=35-	=35-	=35-	=35-	=35-	=35-
*	*	*lig	*	*	*	*	*
1D	cae-	1F	ter-	2d\	-ni	2A/	ter-
!	!	!	!	!LO:TX:t=P:problem=kreska pseudotaktowa	!	!	!
.	.	.	.	2B\	ſunt	2d\	.
!	!	!	!	!	!	!LO:TX:t=P:problem=kreska pseudotaktowa	!
2C/	.	1E	.	1c	cae-	1Gny	-ra
1C/	-li	.	.	.	.	.	.
*	*	*Xlig	*	*	*	*	*
=36-	=36-	=36-	=36-	=36-	=36-	=36-	=36-
*	*	*lig	*	*	*	*	*
.	.	1D	.	2d\	-li	2r	.
*	*	*	*	*	*	*	*ij
2BB/	et	.	.	2.d\	et	2g\	Ple-
1C	ter-	1E	.	.	.	2e\	-ni
.	.	.	.	4c\	ter-	.	.
!	!	!	!	!	!	!LO:TX:t=P:problem=kreska pseudotaktowa	!
.	.	.	.	1c\	-ra	2c/	ſunt
*	*	*	*	*	*Xij	*	*
*	*	*Xlig	*	*	*	*	*
=37-	=37-	=37-	=37-	=37-	=37-	=37-	=37-
*	*	*lig	*	*	*	*	*
1GG	-ra	1D	-rae.	.	.	2g\	cae-
!	!	!	!	!LO:TX:t=P:problem=kreska pseudotaktowa	!	!	!
.	.	.	.	2B\	glo-	4g\	-li
.	.	.	.	.	.	4f\	et
!	!	!LO:TX:t=P:problem=kreska pseudotaktowa	!	!	!	!	!
2C/	glo-	1C	.	2c\	-ri-	4e\	ter-
.	.	.	.	.	.	4e\	-ra
*	*	*	*	*	*	*	*Xij
4C/	.	.	.	2.e\	-a	2.g\	glo-
4D/	.	.	.	.	.	.	.
!	!	!	!	!	!	!LO:TX:t=P::problem=kreska pseudotaktowa&colon;między nutą a kropką	!
*	*	*Xlig	*	*	*	*	*
=38-	=38-	=38-	=38-	=38-	=38-	=38-	=38-
4E\	.	1G	glo-	.	.	.	.
4C/	.	.	.	4e\	tu-	4g\	-ri-
!LO:TX:t=P:problem=kreska pseudotaktowa	!	!	!	!LO:TX:t=P:problem=kreska pseudotaktowa	!	!	!
2G\	.	.	.	2B\	.	2d\	-a
2.C/	.	1E	-ri-	2c\	.	4e\	tu-
.	.	.	.	.	.	4f\	.
.	.	.	.	2.e\	.	1g\	.
4BB/	-ri-	.	.	.	.	.	.
=39-	=39-	=39-	=39-	=39-	=39-	=39-	=39-
1AA	-a	1C	-a	.	.	.	.
.	.	.	.	4d\	.	.	.
!	!	!	!	!	!	!LO:TX:t=P:problem=kreska pseudotaktowa	!
!	!	!	!	!	!	!LO:PB:g=original	!
.	.	.	.	1c	.	2f#X\	.
*	*	*lig	*	*	*	*	*
*	*	*	*	*	*	*custos:g	*
1GG	tu-	1D	tu-	.	.	2g\	-a
*	*	*	*	*	*	*xywh-pl-kk--i-2--0068:1936,603,5826,995	*xywh-pl-kk--i-2--0068:1936,603,5826,995
!	!	!	!	!LO:TX:t=P:problem=kreska pseudotaktowa	!	!	!
.	.	.	.	2B\	.	2.g\	glo-
=40-	=40-	=40-	=40-	=40-	=40-	=40-	=40-
1C	-a	1E	.	1c	-a	.	.
.	.	.	.	.	.	4g\	-ri-
!	!	!	!	!	!	!LO:TX:t=P:problem=kreska pseudotaktowa	!
.	.	.	.	.	.	2e\	-a
*	*	*Xlig	*	*	*	*	*
*	*	*lig	*	*	*	*	*
*	*ij	*	*	*	*	*	*
2FF/	glo-	1F	.	2c\	glo-	2a\	glo-
4FF/	-ri-	.	.	4c\	-ri-	4a\	-ri-
4FF/	-a	.	.	4c\	-a	4a\	-a
=41-	=41-	=41-	=41-	=41-	=41-	=41-	=41-
*lig	*	*	*	*	*	*	*
1C	tu-	1E	.	4.e\	tu-	0g	tu-
*	*	*	*	*custos:c	*	*	*
!	!	!	!	!LO:LB:g=original	!	!	!
.	.	.	.	8d\	.	.	.
*	*	*	*	*xywh-pl-kk--i-2--0171:7890,1418,5917,954	*xywh-pl-kk--i-2--0171:7890,1418,5917,954	*	*
.	.	.	.	1c	.	.	.
*	*	*Xlig	*	*	*	*	*
*	*	*lig	*	*	*	*	*
1GG	.	1D	-a.	.	.	.	.
.	.	.	.	2B\	.	.	.
*Xlig	*	*	*	*	*	*	*
=42-	=42-	=42-	=42-	=42-	=42-	=42-	=42-
0C;	-a	0E;	.	0c;	-a	0g;	-a
!LO:LB:g=original	!	!	!	!	!	!	!
*	*Xij	*	*	*	*	*	*
*	*	*Xlig	*	*	*	*	*
*xywh-pl-kk--i-2--0371:1822,3045,6000,959	*xywh-pl-kk--i-2--0371:1822,3045,6000,959	*xywh-pl-kk--i-2--0271:7963,3783,5629,1111	*xywh-pl-kk--i-2--0271:7963,3783,5629,1111	*	*	*	*
=43||-	=43||-	=43||-	=43||-	=43||-	=43||-	=43||-	=43||-
*M3/1	*	*M3/1	*	*M3/1	*	*M3/1	*
*met(O)	*	*met(O)	*	*met(O)	*	*met(O)	*
*	*	*lig	*	*	*	*	*
!	!	!	!	!	!	!LO:TX:b:t=P:problem=# below	!
1AA	O-	0.E	O-	1A	O-	1c#X	O-
!	!	!	!	!	!	!LO:TX:b:t=P:problem=# below	!
1AA	-ſan-	.	.	1A	-ſan-	1c#X	-ſan-
!	!	!	!	!	!	!LO:TX:b:t=P:problem=# below	!
!LO:TX:t=P:problem=kreska pseudotaktowa	!	!	!	!LO:TX:t=P:problem=kreska pseudotaktowa	!	!LO:TX:t=P:problem=kreska pseudotaktowa	!
1AA	-na	.	.	1A	-na	1c#X	-na
=44-	=44-	=44-	=44-	=44-	=44-	=44-	=44-
0D	in	0.F	.	0A	in	0d	in
!	!	!	!	!LO:TX:t=P:problem=kreska pseudotaktowa	!	!	!
1D	ex-	.	.	1B	ex-	1d	ex-
*	*	*Xlig	*	*	*	*	*
=45-	=45-	=45-	=45-	=45-	=45-	=45-	=45-
0.C	-cel-	0.E	.	2c\	-cel-	1e	-cel-
.	.	.	.	2d\	.	.	.
.	.	.	.	2e\	.	2c/ny	.
.	.	.	.	2d\	.	2d\	.
.	.	.	.	0c	.	2e\	.
!	!	!	!	!	!	!LO:TX:t=P:problem=kreska pseudotaktowa	!
.	.	.	.	.	.	2f\ny	.
=46-	=46-	=46-	=46-	=46-	=46-	=46-	=46-
0.GG	-ſis	0.D	.	.	.	0.g	.
.	.	.	.	0B	.	.	.
=47-	=47-	=47-	=47-	=47-	=47-	=47-	=47-
!	!	!LO:TX:t=P:problem=kreska pseudotaktowa	!	!	!	!	!
0C	.	0.E	.	0c	-ſis	0g	-ſis
!LO:TX:t=P:problem=kreska pseudotaktowa	!	!	!	!LO:TX:t=P:problem=kreska pseudotaktowa	!	!LO:TX:t=P:problem=kreska pseudotaktowa	!
1r	.	.	.	1r	.	1r	.
=48-	=48-	=48-	=48-	=48-	=48-	=48-	=48-
*	*	*lig	*	*	*	*	*
*	*	*	*	*	*	*	*ij
*	*	*	*	*	*ij	*	*
*	*ij	*	*	*	*	*	*
1G	O-	0.B	.	1d	O-	1g	O-
1G	-ſan-	.	.	1d	-ſan-	1g	-ſan-
!	!	!	!	!LO:TX:t=P:problem=kreska pseudotaktowa	!	!LO:TX:t=P:problem=kreska pseudotaktowa	!
1G	-na	.	.	1d	-na	1g	-na
=49-	=49-	=49-	=49-	=49-	=49-	=49-	=49-
0C	in	0.c	.	0e	in	0g	in
!	!	!	!	!LO:TX:t=P:problem=kreska pseudotaktowa	!	!	!
1AA	ex-	.	.	1e	ex-	1a	ex-
*	*	*Xlig	*	*	*	*	*
=50-	=50-	=50-	=50-	=50-	=50-	=50-	=50-
*	*	*lig	*	*	*	*	*
0.E	-cel-	0.B	.	0.e	-cel-	0a	-cel-
*	*	*	*	*	*	*custos:a	*
!	!	!	!	!	!	!LO:LB:g=original	!
.	.	.	.	.	.	1g#X	.
=51-	=51-	=51-	=51-	=51-	=51-	=51-	=51-
*	*	*	*	*	*	*xywh-pl-kk--i-2--0068:1875,1451,5860,934	*xywh-pl-kk--i-2--0068:1875,1451,5860,934
*M2/1	*	*M2/1	*	*M2/1	*	*M2/1	*
*met(C|)	*	*met(C|)	*	*met(C|)	*	*met(C|)	*
2AA,/	-ſis	1A	.	2c,\	-ſis	2a\	-ſis
*	*Xij	*	*	*	*	*	*
*	*	*	*	*	*Xij	*	*
*	*	*	*	*	*	*	*Xij
!	!	!	!	!LO:TX:t=P:problem=kreska pseudotaktowa	!	!LO:TX:t=P:problem=kreska pseudotaktowa	!
2FF/	o-	.	.	2c\	o-	2a\	O-
*	*	*Xlig	*	*	*	*	*
2C/	-ſan-	1G	.	2c\	-ſan-	2e\	-ſan-
!LO:TX:t=P:problem=kreska pseudotaktowa	!	!	!	!LO:TX:t=P:problem=kreska pseudotaktowa	!	!	!
2GG/	-na	.	.	2B\	-na	2d\	-na
=52-	=52-	=52-	=52-	=52-	=52-	=52-	=52-
4AA/	in	1E	-ſan-	4A/	in	4c/	in
4AA/	ex	.	.	4A/	ex	4c/	ex
*	*	*	*	*custos:A	*	*	*
!	!	!	!	!	!	!LO:TX:t=P:problem=kreska pseudotaktowa	!
2E\	cel-	.	.	2G#X/	cel-	2B/	cel-
*	*	*	*	*xywh-pl-kk--i-2--0171:7908,2246,5844,899	*xywh-pl-kk--i-2--0171:7908,2246,5844,899	*	*
!	!	!	!	!LO:LB:g=original	!	!	!
2AA/	-ſis	1C	-na	2A/	-ſis	2A,/	-ſis
4AA/	in	.	.	4c\	in	4e\	in
!	!	!	!	!LO:TX:t=P:problem=kreska pseudotaktowa	!	!	!
4C/	ex	.	.	4c\	ex-	4e\	ex-
=53-	=53-	=53-	=53-	=53-	=53-	=53-	=53-
1GG	cel-	1D	in	4B\	.	1gny	cel-
.	.	.	.	2c\	-cel-	.	.
.	.	.	.	4B\	-ſis	.	.
!LO:TX:t=P:problem=kreska pseudotaktowa	!	!	!	!LO:TX:t=P:problem=kreska pseudotaktowa	!	!	!
*	*	*	*	*	*ij	*	*
1C	-ſis	1E	ex-	1c	in	2g\	-ſis
.	.	.	.	.	.	1c\	.
=54-	=54-	=54-	=54-	=54-	=54-	=54-	=54-
*	*ij	*	*	*	*	*	*
1FF	in	1F	-cel-	1A	.	.	.
!	!	!	!	!	!	!LO:TX:t=P:problem=kreska pseudotaktowa	!
*	*	*	*	*	*	*	*ij
.	.	.	.	.	.	2c/	in
1C	ex-	1E	.	1Gny	ex-	2e\	ex-
.	.	.	.	.	.	1c\	-cel-
=55-	=55-	=55-	=55-	=55-	=55-	=55-	=55-
1GG	-cel-	1D	.	1G	-cel-	.	.
.	.	.	.	.	.	2B/	.
1C;	-ſis	1E;	-ſis.	1G;	-ſis	1c;	-ſis
*	*Xij	*	*	*	*	*	*
*	*	*	*	*	*Xij	*	*
*xywh-pl-kk--i-2--0371:1812,3800,5841,978	*xywh-pl-kk--i-2--0371:1812,3800,5841,978	*xywh-pl-kk--i-2--0272:1698,599,6021,1078	*xywh-pl-kk--i-2--0272:1698,599,6021,1078	*	*	*	*
!LO:PB:g=original	!	!LO:PB:g=original	!	!	!	!	!
*	*	*	*	*	*	*	*Xij
=56||-	=56||-	=56||-	=56||-	=56||-	=56||-	=56||-	=56||-
*M2/1	*	*M2/1	*	*M2/1	*	*M2/1	*
!LO:TX:t=P:problem=kreska pseudotaktowa	!	!	!	!	!	!	!
*met(C|)	*	*met(C|)	*	*met(C|)	*	*met(C|)	*
!	!	!	!	!	!	!LO:TX:a:t=10	!
0r	.	1e	Be-	0r	.	0r	.
.	.	1B	-ne-	.	.	.	.
=57-	=57-	=57-	=57-	=57-	=57-	=57-	=57-
*	*	*lig	*	*	*	*	*
1A	Be-	1c	-di-	0r	.	0r	.
1E	-ne-	1B	.	.	.	.	.
*	*	*Xlig	*	*	*	*	*
=58-	=58-	=58-	=58-	=58-	=58-	=58-	=58-
1F	-di-	1A	.	0r	.	0r	.
!	!	!LO:TX:t=P:problem=kreska pseudotaktowa	!	!	!	!	!
2E\	-ct(us)	1B	-ct(us)	.	.	.	.
!LO:TX:t=P:problem=kreska pseudotaktowa	!	!	!	!	!	!	!
2E\	qui	.	.	.	.	.	.
=59-	=59-	=59-	=59-	=59-	=59-	=59-	=59-
*lig	*	*lig	*	*	*	*	*
!	!	!	!	!LO:TX:t=P:problem=kreska pseudotaktowa	!	!	!
1G	ve-	1B	qui	1r	.	0r	.
1A	.	1c	.	1e	Be-	.	.
*Xlig	*	*Xlig	*	*	*	*	*
=60-	=60-	=60-	=60-	=60-	=60-	=60-	=60-
!	!	!	!	!LO:TX:t=P:problem=kreska pseudotaktowa	!	!LO:TX:t=P:problem=kreska pseudotaktowa	!
2.G\	.	1d	.	1B	-ne-	0r	.
4F\	.	.	.	.	.	.	.
*	*	*lig	*	*	*	*	*
4E\	.	1e	ve-	1c	-di-	.	.
4D/	.	.	.	.	.	.	.
!LO:TX:t=P:problem=kreska pseudotaktowa	!	!	!	!	!	!	!
2C/	.	.	.	.	.	.	.
=61-	=61-	=61-	=61-	=61-	=61-	=61-	=61-
2.D/	.	1d	.	2B\	-ct(us)	2r	.
!	!	!	!	!LO:TX:t=P:problem=kreska pseudotaktowa	!	!	!
.	.	.	.	2A/	qui	1a	Be-
4E\	.	.	.	.	.	.	.
*	*	*Xlig	*	*	*	*	*
4F\	.	1c	.	2.A/	ve-	.	.
4G\	.	.	.	.	.	.	.
!LO:TX:t=P:problem=kreska pseudotaktowa	!	!	!	!	!	!LO:TX:t=P:problem=kreska pseudotaktowa	!
2A\	.	.	.	.	.	2e\	-ne-
.	.	.	.	4G/	.	.	.
=62-	=62-	=62-	=62-	=62-	=62-	=62-	=62-
1D	.	1d	.	4F/	.	1f	-di-
.	.	.	.	4G/	.	.	.
!	!	!	!	!LO:TX:t=P::problem=kreska pseudotaktowa&colon;między nutą a kropką	!	!	!
.	.	.	.	2.A/	.	.	.
*	*	*lig	*	*	*	*	*
1A	.	1c	-nit	.	.	2.e\	-ct(us)
.	.	.	.	4B/	.	.	.
.	.	.	.	4c\	.	.	.
!	!	!	!	!	!	!LO:TX:t=P:problem=kreska pseudotaktowa	!
.	.	.	.	4A/	.	4f\	qui
=63-	=63-	=63-	=63-	=63-	=63-	=63-	=63-
!LO:TX:t=P:problem=kreska pseudotaktowa	!	!LO:TX:t=P:problem=kreska pseudotaktowa	!	!	!	!	!
1G	-nit	1B	.	2d\	.	2g\	ve-
!	!	!	!	!LO:TX:t=P:problem=kreska pseudotaktowa	!	!LO:TX:t=P:problem=kreska pseudotaktowa	!
.	.	.	.	2B\	-nit	2d\	.
*	*	*Xlig	*	*	*	*	*
*	*	*lig	*	*	*	*	*
1E	in	1G	in	2r	.	2e\	-nit
.	.	.	.	2B\	in	2e\	in
=64-	=64-	=64-	=64-	=64-	=64-	=64-	=64-
2.D/	no-	1A	.	2.d\	no-	2.f\	no-
!LO:TX:t=P:problem=kreska pseudotaktowa	!	!	!	!LO:TX:t=P:problem=kreska pseudotaktowa	!	!LO:TX:t=P:problem=kreska pseudotaktowa	!
4D/	-mi-	.	.	4d\	-mi-	4f\	-mi-
*	*	*Xlig	*	*	*	*	*
*	*	*	*	*custos:e	*	*custos:g	*
!	!	!LO:TX:t=P:problem=kreska pseudotaktowa	!	!	!	!	!
1G	-ne	1B	.	1d	-ne	2g\	-ne
*	*	*	*	*xywh-pl-kk--i-2--0171:7954,2945,5917,963	*xywh-pl-kk--i-2--0171:7954,2945,5917,963	*xywh-pl-kk--i-2--0068:1926,2221,5817,943	*xywh-pl-kk--i-2--0068:1926,2221,5817,943
!	!	!	!	!LO:LB:g=original	!	!LO:LB:g=original	!
.	.	.	.	.	.	2.g\	Do-
=65-	=65-	=65-	=65-	=65-	=65-	=65-	=65-
*	*	*lig	*	*	*	*	*
2.C/	Do-	1c	no-	1.e	Do-	.	.
.	.	.	.	.	.	4e\	.
.	.	.	.	.	.	1a	.
!LO:TX:t=P:problem=kreska pseudotaktowa	!	!	!	!	!	!	!
4D/	.	.	.	.	.	.	.
2.E\	.	1B	.	.	.	.	.
!	!	!	!	!	!	!LO:TX:t=P:problem=kreska pseudotaktowa	!
.	.	.	.	2e\	-mi-	2g#X\	-mi-
4E\	mi-	.	.	.	.	.	.
*	*	*Xlig	*	*	*	*	*
=66-	=66-	=66-	=66-	=66-	=66-	=66-	=66-
*custos:GG	*	*	*	*	*	*	*
!LO:TX:t=P:problem=kreska pseudotaktowa	!	!	!	!	!	!	!
*	*	*lig	*	*lig	*	*	*
1AA	-ni	1A	.	1c	-ni	2a\	-ni
*xywh-pl-kk--i-2--0371:7868,604,6372,1006	*xywh-pl-kk--i-2--0371:7868,604,6372,1006	*	*	*	*	*	*
!LO:LB:g=original	!	!	!	!	!	!	!
.	.	.	.	.	.	2c/	in
!	!	!	!	!LO:TX:t=P:problem=kreska pseudotaktowa	!	!LO:TX:t=P:problem=kreska pseudotaktowa	!
2r	.	1G	.	1B	.	1d	no-
1GG/	in	.	.	.	.	.	.
*	*	*Xlig	*	*Xlig	*	*	*
=67-	=67-	=67-	=67-	=67-	=67-	=67-	=67-
.	.	1E	-mi-	0r	.	1.e	.
1AA	no-	.	.	.	.	.	.
!	!	!LO:TX:t=P:problem=kreska pseudotaktowa	!	!	!	!	!
.	.	1C	-ne	.	.	.	.
2AA/	-mi-	.	.	.	.	2e\	-mi-
=68-	=68-	=68-	=68-	=68-	=68-	=68-	=68-
*	*	*lig	*	*	*	*	*
!	!	!	!	!	!	!LO:TX:t=P:problem=kreska pseudotaktowa	!
1BB	-ne	1D	Do-	2r	.	1d	-ne
*	*	*	*	*	*ij	*	*
.	.	.	.	1G	in	.	.
2.C/	do-	1E	.	.	.	2c/	in
!	!	!	!	!LO:TX:t=P:problem=kreska pseudotaktowa	!	!	!
.	.	.	.	2.A\	no-	2.c/	no-
!LO:TX:t=P:problem=kreska pseudotaktowa	!	!	!	!	!	!	!
4BB/	.	.	.	.	.	.	.
*	*	*Xlig	*	*	*	*	*
=69-	=69-	=69-	=69-	=69-	=69-	=69-	=69-
*	*	*lig	*	*	*	*	*
2AA/	.	1F	.	.	.	.	.
.	.	.	.	4A\	-mi-	4c/	-mi-
!LO:TX:t=P:problem=kreska pseudotaktowa	!	!	!	!LO:TX:t=P:problem=kreska pseudotaktowa	!	!LO:TX:t=P:problem=kreska pseudotaktowa	!
2D/	.	.	.	2B\	-ne	2d\	-ne
1C	.	1E	.	1.c	Do-	2.e\	Do-
.	.	.	.	.	.	4f\	.
*	*	*Xlig	*	*	*	*	*
=70-	=70-	=70-	=70-	=70-	=70-	=70-	=70-
2.GG/	.	1D	-mi-	.	.	2.g\ny	.
.	.	.	.	2B\	-mi-	.	.
4GG/	-mi-	.	.	.	.	4g\	-mi-
1C;	-ni	1E;	-ni.	1c;	-ni	1g;	-ni
*	*	*	*	*	*Xij	*	*
*	*	*xywh-pl-kk--i-2--0272:1776,1496,5875,957	*xywh-pl-kk--i-2--0272:1776,1496,5875,957	*	*	*	*
!	!	!LO:LB:g=original	!	!	!	!	!
=71||-	=71||-	=71||-	=71||-	=71||-	=71||-	=71||-	=71||-
*M3/1	*	*M3/1	*	*M3/1	*	*M3/1	*
*met(O)	*	*met(O)	*	*met(O)	*	*met(O)	*
*	*	*lig	*	*	*	*	*
!	!	!	!	!	!	!LO:TX:b:t=P:problem=# below	!
1AA	O-	0.E	O-	1A	O-	1c#X	O-
!	!	!	!	!	!	!LO:TX:b:t=P:problem=# below	!
1AA	-ſan-	.	.	1A	-ſan-	1c#X	-ſan-
!	!	!	!	!	!	!LO:TX:b:t=P:problem=# below	!
!LO:TX:t=P:problem=kreska pseudotaktowa	!	!	!	!LO:TX:t=P:problem=kreska pseudotaktowa	!	!LO:TX:t=P:problem=kreska pseudotaktowa	!
1AA	-na	.	.	1A	-na	1c#X	-na
=72-	=72-	=72-	=72-	=72-	=72-	=72-	=72-
0D	in	0.F	.	0A	in	0d	in
!LO:TX:t=P:problem=kreska pseudotaktowa	!	!	!	!LO:TX:t=P:problem=kreska pseudotaktowa	!	!LO:TX:t=P:problem=kreska pseudotaktowa	!
1D	ex-	.	.	1B	ex-	1d	ex-
*	*	*Xlig	*	*	*	*	*
=73-	=73-	=73-	=73-	=73-	=73-	=73-	=73-
0.C	-cel-	0.E	.	2c\	-cel-	1e	-cel-
.	.	.	.	2d\	.	.	.
.	.	.	.	2e\	.	2c/ny	.
*	*	*	*	*	*	*custos:e	*
.	.	.	.	2d\	.	2d\	.
*	*	*	*	*	*	*xywh-pl-kk--i-2--0068:1926,2992,5860,952	*xywh-pl-kk--i-2--0068:1926,2992,5860,952
!	!	!	!	!	!	!LO:LB:g=original	!
.	.	.	.	0c	.	2e\	.
.	.	.	.	.	.	2f\	.
=74-	=74-	=74-	=74-	=74-	=74-	=74-	=74-
0.GG	-ſis	0.D	.	.	.	0.g	.
.	.	.	.	0B	.	.	.
=75-	=75-	=75-	=75-	=75-	=75-	=75-	=75-
0C	.	0.E	.	0c	-ſis	0g	-ſis
!LO:TX:t=P:problem=kreska pseudotaktowa	!	!	!	!LO:TX:t=P:problem=kreska pseudotaktowa	!	!LO:TX:t=P:problem=kreska pseudotaktowa	!
1r	.	.	.	1r	.	1r	.
=76-	=76-	=76-	=76-	=76-	=76-	=76-	=76-
*	*	*lig	*	*	*	*	*
*	*	*	*	*	*	*	*ij
*	*	*	*	*	*ij	*	*
*	*ij	*	*	*	*	*	*
1G	O-	0.B	.	1d	O-	1g	O-
1G	-ſan-	.	.	1d	-ſan-	1g	-ſan-
*	*	*	*	*custos:e	*	*	*
!LO:TX:t=P:problem=kreska pseudotaktowa	!	!	!	!LO:TX:t=P:problem=kreska pseudotaktowa	!	!LO:TX:t=P:problem=kreska pseudotaktowa	!
1G	-na	.	.	1d	-na	1g	-na
*	*	*	*	*xywh-pl-kk--i-2--0171:7981,3654,5962,1063	*xywh-pl-kk--i-2--0171:7981,3654,5962,1063	*	*
!	!	!	!	!LO:LB:g=original	!	!	!
=77-	=77-	=77-	=77-	=77-	=77-	=77-	=77-
0C	in	0.c	.	0e	in	0g	in
1AA	ex-	.	.	1e	ex-	1a	ex-
*	*	*Xlig	*	*	*	*	*
=78-	=78-	=78-	=78-	=78-	=78-	=78-	=78-
*	*	*lig	*	*	*	*	*
0.E	-cel-	0.B	.	0.e	-cel-	0a	-cel-
.	.	.	.	.	.	1g#X	.
=79-	=79-	=79-	=79-	=79-	=79-	=79-	=79-
*M2/1	*	*M2/1	*	*M2/1	*	*M2/1	*
*met(C|)	*	*met(C|)	*	*met(C|)	*	*met(C|)	*
*xywh-pl-kk--i-2--0371:7933,1489,5981,894	*xywh-pl-kk--i-2--0371:7933,1489,5981,894	*	*	*	*	*	*
!LO:LB:g=original	!	!	!	!	!	!	!
2AA,/	-ſis	1A	.	2c,\	-ſis	2a,\	-ſis
*	*Xij	*	*	*	*	*	*
*	*	*	*	*	*Xij	*	*
*	*	*	*	*	*	*	*Xij
!LO:TX:t=P:problem=kreska pseudotaktowa	!	!	!	!LO:TX:t=P:problem=kreska pseudotaktowa	!	!LO:TX:t=P:problem=kreska pseudotaktowa	!
2FF/	o-	.	.	2c\	o-	2a\	O-
*	*	*Xlig	*	*	*	*	*
2C/	-ſan-	1G	.	2c\	-ſan-	2e\	-ſan-
!	!	!	!	!LO:TX:t=P:problem=kreska pseudotaktowa	!	!	!
2GG/	-na	.	.	2B\	-na	2d\	-na
=80-	=80-	=80-	=80-	=80-	=80-	=80-	=80-
4AA/	in	1E	-ſan-	4A/	in	4c/	in
4AA/	ex-	.	.	4A/	ex-	4c/	ex-
!LO:TX:t=P:problem=kreska pseudotaktowa	!	!	!	!LO:TX:t=P:problem=kreska pseudotaktowa	!	!LO:TX:t=P:problem=kreska pseudotaktowa	!
2E\	-cel-	.	.	2G#X/	-cel-	2B/	-cel-
!	!	!LO:TX:t=P:problem=kreska pseudotaktowa	!	!	!	!	!
2AA/	-ſis	1C	-na	2A,/	-ſis	2A/	-ſis
4AA/	in	.	.	4c\	in	4e\	in
!	!	!	!	!	!	!LO:TX:t=P:problem=kreska pseudotaktowa	!
4C/	ex-	.	.	4c\	ex-	4e\	ex-
=81-	=81-	=81-	=81-	=81-	=81-	=81-	=81-
1GG	-cel-	1D	in	4B\	-cel-	1gny	-cel-
.	.	.	.	2c\	.	.	.
.	.	.	.	4B\	.	.	.
!	!	!	!	!LO:TX:t=P:problem=kreska pseudotaktowa	!	!	!
1C	-ſis	1E	ex-	1c,	-ſis	2g\	-ſis
.	.	.	.	.	.	1c\	.
=82-	=82-	=82-	=82-	=82-	=82-	=82-	=82-
!LO:TX:t=P:problem=kreska pseudotaktowa	!	!	!	!	!	!	!
*	*	*lig	*	*	*	*	*
1FF	in	1F	-cel-	1A	in	.	.
!	!	!	!	!	!	!LO:TX:t=P:problem=kreska pseudotaktowa	!
.	.	.	.	.	.	2c/	in
1C	ex-	1E	.	1Gny	ex-	2e\	ex-
.	.	.	.	.	.	1c\	-cel-
*	*	*Xlig	*	*	*	*	*
=83-	=83-	=83-	=83-	=83-	=83-	=83-	=83-
1GG	-cel-	1D	.	1G	-cel-	.	.
!	!	!	!	!	!	!LO:TX:t=P:problem=kreska pseudotaktowa	!
.	.	.	.	.	.	2B/	.
!	!	!LO:N:vis=0	!	!LO:TX:t=P:problem=kreska pseudotaktowa	!	!	!
4C,/	-ſis	1E;	-ſis.	1G	-ſis	4c,/	-ſis
4E\	o-	.	.	.	.	4g\	o-
4E\	-ſan-	.	.	.	.	4g\	-ſan-
*	*	*	*	*	*	*custos:e	*
!	!	!	!	!	!	!LO:TX:t=P:problem=kreska pseudotaktowa	!
!LO:TX:t=P:problem=kreska pseudotaktowa	!	!	!	!	!	!	!
4D/	-na	.	.	.	.	4f\	-na
*	*	*	*	*	*	*xywh-pl-kk--i-2--0068:1849,3788,4293,891	*xywh-pl-kk--i-2--0068:1849,3788,4293,891
!	!	!	!	!	!	!LO:LB:g=original	!
=84-	=84-	=84-	=84-	=84-	=84-	=84-	=84-
4C/	.	0Eyy	.	4r	.	4e\	in
4BB/	in	.	.	4e\	o-	4c/	ex-
!LO:TX:t=P:problem=kreska pseudotaktowa	!	!	!	!	!	!LO:TX:t=P:problem=kreska pseudotaktowa	!
2GG#X/	ex-	.	.	4e\	-ſan-	2B/	-cel-
!	!	!	!	!LO:TX:t=P:problem=kreska pseudotaktowa	!	!	!
.	.	.	.	4d\	-na	.	.
2AA/	-cel-	.	.	4c\	in	4A,/	-ſis
*	*	*	*	*	*	*	*ij
.	.	.	.	4A/	ex-	4e\	o-
!	!	!	!	!LO:TX:t=P:problem=kreska pseudotaktowa	!	!	!
2E\	-ſis	.	.	2G#X/	-cel-	4e\	-ſan-
!	!	!	!	!	!	!LO:TX:t=P:problem=kreska pseudotaktowa	!
.	.	.	.	.	.	4d\	-na
=85-	=85-	=85-	=85-	=85-	=85-	=85-	=85-
2AA/	.	0Eyy	.	4A,/	-ſis	4c/	in
*	*	*	*	*	*ij	*	*
.	.	.	.	4e\	o-	4A/	ex-
!LO:TX:t=P:problem=kreska pseudotaktowa	!	!	!	!	!	!LO:TX:t=P:problem=kreska pseudotaktowa	!
2r	.	.	.	4e\	-ſan-	2G#X/	-cel-
!	!	!	!	!LO:TX:t=P:problem=kreska pseudotaktowa	!	!	!
.	.	.	.	4d\	-na	.	.
4r	.	.	.	4c\	in	4A,/	-ſis
*	*	*	*	*	*	*	*Xij
*	*	*	*	*	*	*	*ij
*	*ij	*	*	*	*	*	*
4C/	o-	.	.	4A/	ex-	4e\	o-
!	!	!	!	!LO:TX:t=P:problem=kreska pseudotaktowa	!	!	!
4C/	-ſan-	.	.	2G#X/	-cel-	4e\	-ſan-
!LO:TX:t=P:problem=kreska pseudotaktowa	!	!	!	!	!	!LO:TX:t=P:problem=kreska pseudotaktowa	!
4BB/	-na	.	.	.	.	4d\	-na
=86-	=86-	=86-	=86-	=86-	=86-	=86-	=86-
4AA/	in	0Eyy	.	2A/	-ſis	4c/	in
*	*	*	*	*	*Xij	*	*
4AA/	ex-	.	.	.	.	4A/	ex-
!LO:TX:t=P:problem=kreska pseudotaktowa	!	!	!	!LO:TX:t=P:problem=kreska pseudotaktowa	!	!LO:TX:t=P:problem=kreska pseudotaktowa	!
2EE/	-cel-	.	.	2r	.	2G#X/	-cel-
*	*	*	*	*custos:c	*	*	*
2.AA/	-ſis	.	.	2r	.	2A,/	-ſis
!	!	!	!	!LO:PB:g=original	!	!	!
*	*	*	*	*	*	*	*Xij
*	*	*	*	*xywh-pl-kk--i-2--0172:2034,576,2074,1024	*xywh-pl-kk--i-2--0172:2034,576,2074,1024	*	*
!	!	!	!	!LO:TX:t=P:problem=kreska pseudotaktowa	!	!LO:TX:t=P:problem=kreska pseudotaktowa	!
.	.	.	.	2c\	o-	2e\	o-
*custos:GG	*	*	*	*	*	*	*
4AA/	o-	.	.	.	.	.	.
*xywh-pl-kk--i-2--0371:7943,2281,1425,866	*xywh-pl-kk--i-2--0371:7943,2281,1425,866	*	*	*	*	*	*
!LO:LB:g=original	!	!	!	!	!	!	!
=87-	=87-	=87-	=87-	=87-	=87-	=87-	=87-
2AA/	-ſan-	0Eyy	.	2c\	-ſan-	2e\	-ſan-
!LO:TX:t=P:problem=kreska pseudotaktowa	!	!	!	!LO:TX:t=P:problem=kreska pseudotaktowa	!	!	!
2BB/	-na	.	.	2B\	-na	2d\	-na
2C/	in	.	.	2A/	in	2c/	in
!	!	!	!	!	!	!LO:TX:t=P:problem=kreska pseudotaktowa	!
2E\	ex-	.	.	2G#X/	ex-	2B/	ex-
=88-	=88-	=88-	=88-	=88-	=88-	=88-	=88-
0AA	-cel-	0Eyy	.	0A	-cel-	0c	-cel-
=89-	=89-	=89-	=89-	=89-	=89-	=89-	=89-
0EE;	-ſis	0Eyy	.	0G#X;	-ſis.	0B;	-ſis.
*	*Xij	*	*	*	*	*	*
=||-	=||-	=||-	=||-	=||-	=||-	=||-	=||-
*-	*-	*-	*-	*-	*-	*-	*-
!!!system-decoration: [(s1,s2,s3,s4)]
!!!ENC: Filip Voros
!!!END: 2022-01-17
!!!ENC: Julita Ruszuk
!!!END: 2022-01-24
!!!IIIF: https://repozytorium.nifc.pl/islandora/object/pl-kk%3A750/datastream/IIIF/view
!!!ENC-iiif: Marta Opryszak
!!!END-iiif: 2022-08-24
!!!YEC: Copyright 2022 Narodowy Instytut Fryderyka Chopina (https://polishscores.org)
!!!YEM: Licence CC BY 4.0 (https://creativecommons.org/licenses/by/4.0)
